;Generated by Cura LulzBot Edition GCodeWriter Version: 3.6.29
;FLAVOR:Marlin
;TIME:5255
;Filament used: 3.31172m
;Layer height: 0.2
;Generated with Cura_SteamEngine 3.6.29-2
M82 ;absolute extrusion mode
;This G-Code has been generated specifically for the LulzBot TAZ Workhorse with HS+ Tool Head
M73 P0 ; clear GLCD progress bar
M75 ; start GLCD timer
G26 ; clear potential 'probe fail' condition
M107 ; disable fans
M420 S0 ; disable previous leveling matrix
G90 ; absolute positioning
M82 ; set extruder to absolute mode
G92 E0 ; set extruder position to 0
M140 S75.0 ; start bed heating up
M109 R185 ; soften filament before homing Z
G28 ; Home all axis
G1 E-30 F100 ; retract filament
G12                         ; wiping sequence
M109 R160 ; wait for extruder to reach probe temp
G1 X288 Y-10 F4000; move above first probe point
M204 S100 ; set probing acceleration
G29       ; start auto-leveling sequence
M420 S1   ; activate bed level matrix
M425 Z    ; use measured Z backlash for compensation
M425 Z F0 ; turn off measured Z backlash compensation. (if activated in the quality settings, this command will automatically be ignored)
M204 S500 ; restore standard acceleration
G1 X0 Y0 Z15 F5000 ; move up off last probe point
G4 S1 ; pause
M400 ; wait for moves to finish
M117 Heating... ; progress indicator message on LCD
M109 R225 ; wait for extruder to reach printing temp
M190 R75.0 ; wait for bed to reach printing temp
G1 Z2 E0 F75 ; prime tiny bit of filament into the nozzle
M117 TAZ Workhorse Printing... ; progress indicator message on LCD

M221 S100 T0
G92 E0
G1 F900 E-2
;LAYER_COUNT:48
;LAYER:0
M425 F1.0
M107
G0 F6000 X113.832 Y62.424 Z0.7
;TYPE:SKIRT
G1 F900 E0.07838
G1 X113.147 Y62.151 E0.17547
G1 X112.496 Y61.804 E0.27261
G1 X111.887 Y61.39 E0.36957
G1 X111.325 Y60.912 E0.46672
G1 X110.819 Y60.376 E0.56378
G1 X110.374 Y59.788 E0.66088
G1 X109.995 Y59.156 E0.75791
G1 X109.687 Y58.486 E0.85501
G1 X109.453 Y57.787 E0.95207
G1 X109.296 Y57.066 E1.04923
G1 X109.209 Y55.982 E1.19242
G1 X109.21 Y26.009 E5.13908
G1 X109.25 Y25.273 E5.23614
G1 X109.369 Y24.545 E5.33327
G1 X109.567 Y23.835 E5.43033
G1 X109.84 Y23.15 E5.52742
G1 X110.186 Y22.499 E5.6245
G1 X110.6 Y21.889 E5.72157
G1 X111.078 Y21.327 E5.81872
G1 X111.614 Y20.821 E5.91578
G1 X112.202 Y20.376 E6.01287
G1 X112.834 Y19.996 E6.10997
G1 X113.504 Y19.688 E6.20707
G1 X114.203 Y19.454 E6.30413
G1 X114.923 Y19.296 E6.40119
G1 X116.007 Y19.209 E6.54439
G1 X135.29 Y19.2 E9.08345
G1 X135.802 Y19.219 E9.15092
G1 X139.849 Y19.523 E9.6853
G1 X145.2 Y19.748 E10.39051
G1 X150.446 Y19.673 E11.08134
G1 X156.498 Y19.228 E11.88039
G1 X156.997 Y19.21 E11.94613
G1 X176.998 Y19.21 E14.57974
G1 X177.379 Y19.221 E14.62993
G1 X179.931 Y19.364 E14.96649
G1 X185.261 Y19.439 E15.66838
G1 X191.056 Y19.206 E16.43205
G1 X191.336 Y19.2 E16.46893
G1 X211.085 Y19.218 E19.06936
G1 X211.559 Y19.235 E19.13181
G1 X217.015 Y19.621 E19.85202
G1 X222.229 Y19.695 E20.53863
G1 X230.627 Y19.22 E21.6462
G1 X231.011 Y19.209 E21.69678
G1 X250.991 Y19.209 E24.32763
G1 X251.727 Y19.249 E24.42468
G1 X252.455 Y19.368 E24.52181
G1 X253.165 Y19.566 E24.61887
G1 X253.85 Y19.839 E24.71596
G1 X254.501 Y20.185 E24.81304
G1 X255.111 Y20.599 E24.91011
G1 X255.672 Y21.077 E25.00716
G1 X256.179 Y21.613 E25.10431
G1 X256.624 Y22.2 E25.2013
G1 X257.004 Y22.833 E25.29852
G1 X257.312 Y23.502 E25.39549
G1 X257.546 Y24.201 E25.49255
G1 X257.704 Y24.922 E25.58974
G1 X257.791 Y26.009 E25.73333
G1 X257.791 Y55.991 E29.68118
G1 X257.751 Y56.727 E29.77823
G1 X257.632 Y57.455 E29.87536
G1 X257.434 Y58.165 E29.97242
G1 X257.161 Y58.85 E30.06951
G1 X256.815 Y59.501 E30.16659
G1 X256.401 Y60.111 E30.26366
G1 X255.923 Y60.672 E30.36071
G1 X255.387 Y61.179 E30.45786
G1 X254.8 Y61.624 E30.55485
G1 X254.167 Y62.004 E30.65206
G1 X253.498 Y62.312 E30.74904
G1 X252.799 Y62.546 E30.8461
G1 X252.078 Y62.704 E30.94329
G1 X250.99 Y62.791 E31.08701
G1 X230.986 Y62.789 E33.72101
G1 X230.407 Y62.764 E33.79733
G1 X227.675 Y62.53 E34.15838
G1 X222.35 Y62.305 E34.86016
G1 X217.084 Y62.379 E35.55363
G1 X211.48 Y62.773 E36.29335
G1 X211.003 Y62.79 E36.3562
G1 X191.002 Y62.79 E38.98981
G1 X190.621 Y62.779 E39.04
G1 X188.069 Y62.636 E39.37656
G1 X182.739 Y62.561 E40.07845
G1 X176.944 Y62.794 E40.84211
G1 X176.667 Y62.8 E40.8786
G1 X157.007 Y62.79 E43.4673
G1 X156.512 Y62.772 E43.53253
G1 X150.42 Y62.325 E44.33684
G1 X145.179 Y62.252 E45.02701
G1 X139.854 Y62.479 E45.72881
G1 X136.582 Y62.765 E46.16129
G1 X135.987 Y62.791 E46.23971
G1 X116.006 Y62.782 E48.87069
G1 X115.27 Y62.742 E48.96774
G1 X114.542 Y62.622 E49.06489
G1 X113.832 Y62.424 E49.16195
G0 F6000 X114.041 Y61.225
G1 F900 X113.43 Y60.953 E49.25001
G1 X112.856 Y60.61 E49.33806
G1 X112.326 Y60.201 E49.42621
G1 X111.849 Y59.731 E49.51439
G1 X111.432 Y59.208 E49.60246
G1 X111.08 Y58.64 E49.69045
G1 X110.798 Y58.033 E49.77858
G1 X110.591 Y57.397 E49.86665
G1 X110.461 Y56.74 E49.95484
G1 X110.409 Y55.982 E50.05488
G1 X110.41 Y26.009 E54.00154
G1 X110.45 Y25.341 E54.08966
G1 X110.569 Y24.683 E54.17771
G1 X110.766 Y24.043 E54.26588
G1 X111.038 Y23.432 E54.35394
G1 X111.381 Y22.857 E54.4421
G1 X111.79 Y22.328 E54.53015
G1 X112.259 Y21.851 E54.61823
G1 X112.782 Y21.433 E54.70639
G1 X113.35 Y21.081 E54.79438
G1 X113.957 Y20.799 E54.88251
G1 X114.593 Y20.591 E54.97062
G1 X115.249 Y20.461 E55.05868
G1 X116.007 Y20.409 E55.15872
G1 X135.29 Y20.4 E57.69779
G1 X135.712 Y20.416 E57.75339
G1 X139.768 Y20.72 E58.28896
G1 X145.185 Y20.949 E59.00288
G1 X150.5 Y20.873 E59.70279
G1 X156.586 Y20.425 E60.50633
G1 X156.997 Y20.41 E60.56048
G1 X176.998 Y20.41 E63.19409
G1 X177.311 Y20.419 E63.23532
G1 X179.893 Y20.564 E63.57584
G1 X185.275 Y20.64 E64.28458
G1 X191.105 Y20.405 E65.05286
G1 X191.335 Y20.4 E65.08316
G1 X211.084 Y20.418 E67.68358
G1 X211.474 Y20.432 E67.73497
G1 X216.966 Y20.82 E68.45993
G1 X222.251 Y20.895 E69.15589
G1 X230.695 Y20.418 E70.26952
G1 X231.011 Y20.409 E70.31115
G1 X250.991 Y20.409 E72.94199
G1 X251.659 Y20.449 E73.03011
G1 X252.317 Y20.568 E73.11815
G1 X252.957 Y20.765 E73.20633
G1 X253.568 Y21.037 E73.29439
G1 X254.142 Y21.38 E73.38244
G1 X254.672 Y21.789 E73.47059
G1 X255.149 Y22.258 E73.55867
G1 X255.567 Y22.78 E73.64673
G1 X255.919 Y23.349 E73.73483
G1 X256.201 Y23.956 E73.82296
G1 X256.409 Y24.592 E73.91107
G1 X256.539 Y25.248 E73.99912
G1 X256.591 Y26.009 E74.09956
G1 X256.591 Y55.991 E78.04741
G1 X256.551 Y56.659 E78.13552
G1 X256.432 Y57.317 E78.22357
G1 X256.235 Y57.957 E78.31174
G1 X255.963 Y58.568 E78.39981
G1 X255.62 Y59.142 E78.48786
G1 X255.211 Y59.672 E78.57601
G1 X254.742 Y60.149 E78.66409
G1 X254.22 Y60.567 E78.75214
G1 X253.651 Y60.919 E78.84024
G1 X253.044 Y61.201 E78.92837
G1 X252.408 Y61.409 E79.01648
G1 X251.752 Y61.539 E79.10454
G1 X250.99 Y61.591 E79.20511
G1 X230.986 Y61.589 E81.83912
G1 X230.509 Y61.569 E81.90198
G1 X227.736 Y61.331 E82.26845
G1 X222.365 Y61.104 E82.9763
G1 X217.035 Y61.18 E83.6782
G1 X211.395 Y61.576 E84.42267
G1 X211.003 Y61.59 E84.47432
G1 X191.002 Y61.59 E87.10793
G1 X190.689 Y61.581 E87.14916
G1 X188.107 Y61.436 E87.48967
G1 X182.725 Y61.36 E88.19841
G1 X176.895 Y61.595 E88.9667
G1 X176.667 Y61.6 E88.99673
G1 X157.007 Y61.59 E91.58543
G1 X156.6 Y61.575 E91.63906
G1 X150.475 Y61.126 E92.44773
G1 X145.162 Y61.051 E93.14738
G1 X139.789 Y61.281 E93.85551
G1 X136.478 Y61.57 E94.29314
G1 X135.987 Y61.591 E94.35785
G1 X116.006 Y61.582 E96.98883
G1 X115.339 Y61.542 E97.07681
G1 X114.68 Y61.422 E97.16501
G1 X114.041 Y61.225 E97.25306
G1 F900 E95.25306
G1 F180 Z2.2
;MESH:
G0 F6000 X135.4 Y55.4 Z2.2
;TYPE:WALL-OUTER
G1 F180 Z0.7
G1 F900 E97.33144
G1 X116.6 Y55.4 E99.80691
G1 X116.6 Y26.6 E103.59912
G1 X135.4 Y26.6 E106.07459
G1 X135.4 Y55.4 E109.86679
G0 F6000 X134.8 Y55.4
G0 X134.2 Y54.2
;TYPE:WALL-INNER
G1 F900 X117.8 Y54.2 E112.02625
G1 X117.8 Y27.8 E115.50244
G1 X134.2 Y27.8 E117.66189
G1 X134.2 Y54.2 E121.13808
G0 F6000 X133.01 Y53.01
;TYPE:SKIN
G1 F900 X118.99 Y53.01 E122.98415
G1 X118.99 Y28.99 E126.14695
G1 X133.01 Y28.99 E127.99302
G1 X133.01 Y53.01 E131.15583
G1 F900 E129.15583
G1 F180 Z2.2
G0 F6000 X120.412 Y52.53 Z2.2
G1 F180 Z0.7
G1 F900 E131.23421
G1 X119.469 Y51.586 E131.4099
G0 F6000 X119.469 Y49.889
G1 F900 X122.109 Y52.53 E131.9016
G0 F6000 X123.806 Y52.53
G1 F900 X119.469 Y48.192 E132.70931
G0 F6000 X119.469 Y46.495
G1 F900 X125.503 Y52.53 E133.83302
G0 F6000 X127.2 Y52.53
G1 F900 X119.469 Y44.798 E135.27275
G0 F6000 X119.469 Y43.101
G1 F900 X128.897 Y52.53 E137.02847
G0 F6000 X130.594 Y52.53
G1 F900 X119.469 Y41.404 E139.10021
G0 F6000 X119.469 Y39.707
G1 F900 X132.291 Y52.53 E141.48795
G0 F6000 X132.529 Y51.07
G1 F900 X119.469 Y38.01 E143.91992
G0 F6000 X119.469 Y36.313
G1 F900 X132.529 Y49.373 E146.35189
G0 F6000 X132.529 Y47.676
G1 F900 X119.469 Y34.616 E148.78385
G0 F6000 X119.469 Y32.919
G1 F900 X132.529 Y45.979 E151.21582
G0 F6000 X132.529 Y44.282
G1 F900 X119.469 Y31.222 E153.64779
G0 F6000 X119.469 Y29.525
G1 F900 X132.529 Y42.585 E156.07976
G0 F6000 X132.529 Y40.888
G1 F900 X121.111 Y29.47 E158.20596
G0 F6000 X122.808 Y29.47
G1 F900 X132.529 Y39.191 E160.01616
G0 F6000 X132.529 Y37.494
G1 F900 X124.505 Y29.47 E161.51035
G0 F6000 X126.202 Y29.47
G1 F900 X132.529 Y35.797 E162.68853
G0 F6000 X132.529 Y34.1
G1 F900 X127.899 Y29.47 E163.5507
G0 F6000 X129.596 Y29.47
G1 F900 X132.529 Y32.403 E164.09687
G0 F6000 X132.529 Y30.706
G1 F900 X131.293 Y29.47 E164.32704
G1 F900 E162.32704
G1 F180 Z2.2
G0 F6000 X176.4 Y55.4 Z2.2
;TYPE:WALL-OUTER
G1 F180 Z0.7
G1 F900 E164.40541
G1 X157.6 Y55.4 E166.88088
G1 X157.6 Y26.6 E170.67309
G1 X176.4 Y26.6 E173.14856
G1 X176.4 Y55.4 E176.94077
G0 F6000 X175.8 Y55.4
G0 X175.2 Y54.2
;TYPE:WALL-INNER
G1 F900 X158.8 Y54.2 E179.10022
G1 X158.8 Y27.8 E182.57641
G1 X175.2 Y27.8 E184.73586
G1 X175.2 Y54.2 E188.21205
G0 F6000 X174.01 Y53.01
;TYPE:SKIN
G1 F900 X159.99 Y53.01 E190.05812
G1 X159.99 Y28.99 E193.22093
G1 X174.01 Y28.99 E195.067
G1 X174.01 Y53.01 E198.2298
G1 F900 E196.2298
G1 F180 Z2.2
G0 F6000 X161.141 Y52.529 Z2.2
G1 F180 Z0.7
G1 F900 E198.30818
G1 X160.468 Y51.857 E198.43341
G0 F6000 X160.468 Y50.16
G1 F900 X162.838 Y52.529 E198.87465
G0 F6000 X164.535 Y52.529
G1 F900 X160.468 Y48.462 E199.63198
G0 F6000 X160.468 Y46.765
G1 F900 X166.232 Y52.529 E200.70533
G0 F6000 X167.929 Y52.529
G1 F900 X160.468 Y45.068 E202.09468
G0 F6000 X160.468 Y43.371
G1 F900 X169.626 Y52.529 E203.80003
G0 F6000 X171.323 Y52.529
G1 F900 X160.468 Y41.674 E205.8214
G0 F6000 X160.468 Y39.977
G1 F900 X173.02 Y52.529 E208.15877
G0 F6000 X173.528 Y51.34
G1 F900 X160.468 Y38.28 E210.59074
G0 F6000 X160.468 Y36.583
G1 F900 X173.528 Y49.643 E213.0227
G0 F6000 X173.528 Y47.946
G1 F900 X160.468 Y34.886 E215.45467
G0 F6000 X160.468 Y33.189
G1 F900 X173.528 Y46.249 E217.88664
G0 F6000 X173.528 Y44.552
G1 F900 X160.468 Y31.492 E220.31861
G0 F6000 X160.468 Y29.795
G1 F900 X173.528 Y42.855 E222.75058
G0 F6000 X173.528 Y41.158
G1 F900 X161.84 Y29.47 E224.92706
G0 F6000 X163.537 Y29.47
G1 F900 X173.528 Y39.461 E226.78753
G0 F6000 X173.528 Y37.764
G1 F900 X165.234 Y29.47 E228.332
G0 F6000 X166.931 Y29.47
G1 F900 X173.528 Y36.067 E229.56046
G0 F6000 X173.528 Y34.37
G1 F900 X168.628 Y29.47 E230.47291
G0 F6000 X170.325 Y29.47
G1 F900 X173.528 Y32.673 E231.06936
G0 F6000 X173.528 Y30.976
G1 F900 X172.022 Y29.47 E231.3498
G1 F900 E229.3498
G1 F180 Z2.2
G0 F6000 X210.4 Y55.4 Z2.2
;TYPE:WALL-OUTER
G1 F180 Z0.7
G1 F900 E231.42818
G1 X191.6 Y55.4 E233.90365
G1 X191.6 Y26.6 E237.69585
G1 X210.4 Y26.6 E240.17132
G1 X210.4 Y55.4 E243.96353
G0 F6000 X209.8 Y55.4
G0 X209.2 Y54.2
;TYPE:WALL-INNER
G1 F900 X192.8 Y54.2 E246.12298
G1 X192.8 Y27.8 E249.59917
G1 X209.2 Y27.8 E251.75863
G1 X209.2 Y54.2 E255.23482
G0 F6000 X208.01 Y53.01
;TYPE:SKIN
G1 F900 X193.99 Y53.01 E257.08088
G1 X193.99 Y28.99 E260.24369
G1 X208.01 Y28.99 E262.08976
G1 X208.01 Y53.01 E265.25257
G1 F900 E263.25257
G1 F180 Z2.2
G0 F6000 X195.082 Y52.53 Z2.2
G1 F180 Z0.7
G1 F900 E265.33094
G1 X194.469 Y51.916 E265.44519
G0 F6000 X194.469 Y50.219
G1 F900 X196.78 Y52.53 E265.87553
G0 F6000 X198.477 Y52.53
G1 F900 X194.469 Y48.522 E266.62188
G0 F6000 X194.469 Y46.825
G1 F900 X200.174 Y52.53 E267.68424
G0 F6000 X201.871 Y52.53
G1 F900 X194.469 Y45.128 E269.0626
G0 F6000 X194.469 Y43.431
G1 F900 X203.568 Y52.53 E270.75697
G0 F6000 X205.265 Y52.53
G1 F900 X194.469 Y41.734 E272.76735
G0 F6000 X194.469 Y40.037
G1 F900 X206.962 Y52.53 E275.09373
G0 F6000 X207.529 Y51.4
G1 F900 X194.469 Y38.34 E277.5257
G0 F6000 X194.469 Y36.642
G1 F900 X207.529 Y49.703 E279.95776
G0 F6000 X207.529 Y48.006
G1 F900 X194.469 Y34.945 E282.38982
G0 F6000 X194.469 Y33.248
G1 F900 X207.529 Y46.309 E284.82188
G0 F6000 X207.529 Y44.612
G1 F900 X194.469 Y31.551 E287.25394
G0 F6000 X194.469 Y29.854
G1 F900 X207.529 Y42.915 E289.68601
G0 F6000 X207.529 Y41.217
G1 F900 X195.781 Y29.47 E291.87357
G0 F6000 X197.478 Y29.47
G1 F900 X207.529 Y39.52 E293.74512
G0 F6000 X207.529 Y37.823
G1 F900 X199.175 Y29.47 E295.30067
G0 F6000 X200.872 Y29.47
G1 F900 X207.529 Y36.126 E296.54021
G0 F6000 X207.529 Y34.429
G1 F900 X202.569 Y29.47 E297.46374
G0 F6000 X204.266 Y29.47
G1 F900 X207.529 Y32.732 E298.07127
G0 F6000 X207.529 Y31.035
G1 F900 X205.963 Y29.47 E298.36279
G1 F900 E296.36279
G1 F180 Z2.2
G0 F6000 X250.4 Y55.4 Z2.2
;TYPE:WALL-OUTER
G1 F180 Z0.7
G1 F900 E298.44116
G1 X231.6 Y55.4 E300.91663
G1 X231.6 Y26.6 E304.70884
G1 X250.4 Y26.6 E307.18431
G1 X250.4 Y55.4 E310.97652
G0 F6000 X249.8 Y55.4
G0 X249.2 Y54.2
;TYPE:WALL-INNER
G1 F900 X232.8 Y54.2 E313.13597
G1 X232.8 Y27.8 E316.61216
G1 X249.2 Y27.8 E318.77161
G1 X249.2 Y54.2 E322.2478
G0 F6000 X248.01 Y53.01
;TYPE:SKIN
G1 F900 X233.99 Y53.01 E324.09387
G1 X233.99 Y28.99 E327.25668
G1 X248.01 Y28.99 E329.10275
G1 X248.01 Y53.01 E332.26555
G1 F900 E330.26555
G1 F180 Z2.2
G0 F6000 X235.811 Y52.529 Z2.2
G1 F180 Z0.7
G1 F900 E332.34393
G1 X234.468 Y51.186 E332.59402
G0 F6000 X234.468 Y49.489
G1 F900 X237.508 Y52.529 E333.16011
G0 F6000 X239.205 Y52.529
G1 F900 X234.468 Y47.792 E334.04221
G0 F6000 X234.468 Y46.095
G1 F900 X240.902 Y52.529 E335.24032
G0 F6000 X242.599 Y52.529
G1 F900 X234.468 Y44.398 E336.75443
G0 F6000 X234.468 Y42.701
G1 F900 X244.296 Y52.529 E338.58456
G0 F6000 X245.993 Y52.529
G1 F900 X234.468 Y41.004 E340.73068
G0 F6000 X234.468 Y39.307
G1 F900 X247.529 Y52.367 E343.16274
G0 F6000 X247.529 Y50.67
G1 F900 X234.468 Y37.61 E345.59481
G0 F6000 X234.468 Y35.913
G1 F900 X247.529 Y48.973 E348.02687
G0 F6000 X247.529 Y47.276
G1 F900 X234.468 Y34.216 E350.45893
G0 F6000 X234.468 Y32.519
G1 F900 X247.529 Y45.579 E352.89099
G0 F6000 X247.529 Y43.882
G1 F900 X234.468 Y30.822 E355.32305
G0 F6000 X234.813 Y29.47
G1 F900 X247.529 Y42.185 E357.69087
G0 F6000 X247.529 Y40.488
G1 F900 X236.51 Y29.47 E359.74268
G0 F6000 X238.208 Y29.47
G1 F900 X247.529 Y38.791 E361.47839
G0 F6000 X247.529 Y37.094
G1 F900 X239.905 Y29.47 E362.89809
G0 F6000 X241.602 Y29.47
G1 F900 X247.529 Y35.397 E364.00179
G0 F6000 X247.529 Y33.7
G1 F900 X243.299 Y29.47 E364.78948
G0 F6000 X244.996 Y29.47
G1 F900 X247.529 Y32.002 E365.26107
G0 F6000 X247.529 Y30.305
M104 S225
G1 F900 X246.693 Y29.47 E365.41665
G1 F900 E363.41665
G1 F180 Z2.2
;MESH:NONMESH
G0 F6000 X135.4 Y55.4 Z2.2
;TIME_ELAPSED:218.007914
;LAYER:1
M425 F0.1
M140 S70
M221 S100 T0
M106 S51
;MESH:
G0 F8400 X135.4 Y55.4 Z2.4
;TYPE:WALL-OUTER
G1 F180 Z0.9
G1 F900 E365.49503
G1 F1050 X116.6 Y55.4 E366.2023
G1 X116.6 Y26.6 E367.28579
G1 X135.4 Y26.6 E367.99307
G1 X135.4 Y55.4 E369.07656
G0 F8400 X134.8 Y55.4
G0 X134.2 Y54.2
;TYPE:WALL-INNER
G1 F1050 X117.8 Y54.2 E369.69354
G1 X117.8 Y27.8 E370.68674
G1 X134.2 Y27.8 E371.30373
G1 X134.2 Y54.2 E372.29692
G0 F8400 X133.01 Y53.01
;TYPE:SKIN
G1 F1350 X118.99 Y53.01 E372.82437
G1 X118.99 Y28.99 E373.72803
G1 X133.01 Y28.99 E374.25548
G1 X133.01 Y53.01 E375.15914
G0 F8400 X132.529 Y50.752
G1 F1350 X130.751 Y52.53 E375.25373
G0 F8400 X129.054 Y52.53
G1 F1350 X132.529 Y49.055 E375.43862
G0 F8400 X132.529 Y47.358
G1 F1350 X127.357 Y52.53 E375.71379
G0 F8400 X125.66 Y52.53
G1 F1350 X132.529 Y45.661 E376.07925
G0 F8400 X132.529 Y43.964
G1 F1350 X123.963 Y52.53 E376.535
G0 F8400 X122.266 Y52.53
